packages/ffe-icons/icons/open/300/sm/smart_toy.svg

<svg xmlns="http://www.w3.org/2000/svg" height="20" viewBox="0 -960 960 960" width="20"><path d="M212.001-404.001q-31.922 0-53.96-22.038-22.038-22.039-22.038-53.961 0-31.922 22.038-53.961 22.038-22.038 53.96-22.038v-79.692q0-26.527 18.891-45.417 18.89-18.891 45.417-18.891h127.692q0-31.922 22.038-53.96 22.039-22.038 53.961-22.038 31.922 0 53.961 22.038 22.038 22.038 22.038 53.96h127.692q26.527 0 45.417 18.891 18.891 18.89 18.891 45.417v79.692q31.922 0 53.96 22.038 22.038 22.039 22.038 53.961 0 31.922-22.038 53.961-22.038 22.038-53.96 22.038v175.692q0 26.527-18.903 45.417-18.902 18.891-45.445 18.891H276.025q-26.543 0-45.283-18.891-18.741-18.89-18.741-45.417v-175.692Zm147.954-62q15.814 0 26.929-11.07 11.115-11.07 11.115-26.884t-11.07-26.929q-11.07-11.115-26.884-11.115t-26.929 11.07q-11.115 11.07-11.115 26.884t11.07 26.929q11.07 11.115 26.884 11.115Zm228 0q15.814 0 26.929-11.07 11.115-11.07 11.115-26.884t-11.07-26.929q-11.07-11.115-26.884-11.115t-26.929 11.07q-11.115 11.07-11.115 26.884t11.07 26.929q11.07 11.115 26.884 11.115Zm-215.995 144h215.757q11.033 0 18.658-7.418 7.624-7.418 7.624-18.384 0-10.966-7.463-18.581t-18.496-7.615H372.283q-11.033 0-18.657 7.418-7.625 7.418-7.625 18.384 0 10.966 7.463 18.581t18.496 7.615ZM276.309-216h407.382q5.385 0 8.847-3.462 3.462-3.462 3.462-8.847v-407.382q0-5.385-3.462-8.847-3.462-3.462-8.847-3.462H276.309q-5.385 0-8.847 3.462-3.462 3.462-3.462 8.847v407.382q0 5.385 3.462 8.847 3.462 3.462 8.847 3.462ZM480-432Z"/></svg>

<svg xmlns="http://www.w3.org/2000/svg" height="20" viewBox="0 -960 960 960" width="20"><path d="M212-404q-31.92 0-53.96-22.04T136-480q0-31.92 22.04-53.96T212-556v-79.69q0-26.53 18.89-45.42T276.31-700H404q0-31.92 22.04-53.96T480-776q31.92 0 53.96 22.04T556-700h127.69q26.53 0 45.42 18.89T748-635.69V-556q31.92 0 53.96 22.04T824-480q0 31.92-22.04 53.96T748-404v175.69q0 26.53-18.9 45.42Q710.19-164 683.65-164H276.03q-26.55 0-45.29-18.89T212-228.31V-404Zm147.95-62q15.82 0 26.93-11.07Q398-488.14 398-503.95q0-15.82-11.07-26.93Q375.86-542 360.05-542q-15.82 0-26.93 11.07Q322-519.86 322-504.05q0 15.82 11.07 26.93Q344.14-466 359.95-466Zm228 0q15.82 0 26.93-11.07Q626-488.14 626-503.95q0-15.82-11.07-26.93Q603.86-542 588.05-542q-15.82 0-26.93 11.07Q550-519.86 550-504.05q0 15.82 11.07 26.93Q572.14-466 587.95-466ZM371.96-322h215.76q11.03 0 18.65-7.42 7.63-7.42 7.63-18.38 0-10.97-7.46-18.58-7.47-7.62-18.5-7.62H372.28q-11.03 0-18.65 7.42-7.63 7.42-7.63 18.38 0 10.97 7.46 18.58 7.47 7.62 18.5 7.62Zm-95.65 106h407.38q5.39 0 8.85-3.46t3.46-8.85v-407.38q0-5.39-3.46-8.85t-8.85-3.46H276.31q-5.39 0-8.85 3.46t-3.46 8.85v407.38q0 5.39 3.46 8.85t8.85 3.46ZM480-432Z"/></svg>
